X:2528
T:Cantar de Navidá (CT 172)
R:Navidá
C:Tradicional
S:Música Tradicional Asturiana, (C) Tello & Tito. Asturies, 2001.
S:http://pagina.de/MusTradAst <telloytito@asturies.org>
N:Canción de Navidad, dictada por Balbina Martínez Pérez, de cincuenta años, de Folgueras, ayuntamiento de Coaña.
O:Folgueras (Coaña)
A:Asturies
Z:Cancioneru de Torner 172
M:3/8
L:1/8
Q:3/8=80
W:San José y María
W:un viaje dispusieron;
W:a las doce del día
W:de sus casas salieron.
W:
W:Fuéronse poco a poco,
W:pisando con sus plantas,
W:cuando el divino cielo
W:un portal les prepara.
W:
W:Llamaron a la puerta,
W:¿Quién a estas horas llama?
W:Responde San José:
W:¡Una niña preñada!
W:
W:Unos le tiran miel,
W:otros manteca y vianda
W:y otros ricos panales
W:que parecen de Holanda.
W:
W:Vayan de fiesta en fiesta,
W:de fiesta en fiesta vayan,
W:que en Belén ha nacido
W:el bello sol del alba.
K:Gm
|GGG|B2 c|d d2|ccA|B2 c|d d2|ccA|B2 A|G ^F2|AcB|A2 ^F|G G2 :||


